boxicons/svg/regular/bx-collapse.svg

<svg xmlns="http://www.w3.org/2000/svg" width="24" height="24" viewBox="0 0 24 24"><path d="M16.121 6.465 14 4.344V10h5.656l-2.121-2.121 3.172-3.172-1.414-1.414zM4.707 3.293 3.293 4.707l3.172 3.172L4.344 10H10V4.344L7.879 6.465zM19.656 14H14v5.656l2.121-2.121 3.172 3.172 1.414-1.414-3.172-3.172zM6.465 16.121l-3.172 3.172 1.414 1.414 3.172-3.172L10 19.656V14H4.344z"/></svg>

<svg xmlns="http://www.w3.org/2000/svg" width="24" height="24" viewBox="0 0 24 24"><path d="M16.121 6.465L14 4.344 14 10 19.656 10 17.535 7.879 20.707 4.707 19.293 3.293zM4.707 3.293L3.293 4.707 6.465 7.879 4.344 10 10 10 10 4.344 7.879 6.465zM19.656 14L14 14 14 19.656 16.121 17.535 19.293 20.707 20.707 19.293 17.535 16.121zM6.465 16.121L3.293 19.293 4.707 20.707 7.879 17.535 10 19.656 10 14 4.344 14z"/></svg>
